img/rune-2.svg

<svg width="32" height="11" viewBox="0 0 32 11" fill="none" xmlns="http://www.w3.org/2000/svg">
<g clip-path="url(#clip0)">
<path d="M3.10346 2.82049C2.29887 3.62509 1.49427 4.42968 0.68967 5.23428C0.68967 4.42968 0.574728 4.12317 1.14944 3.54846C1.87741 2.82049 2.68201 2.13083 3.37166 1.36455C3.60155 1.09635 3.98469 0.483322 3.25672 0.598265C2.98852 0.674893 2.72032 1.05804 2.56706 1.21129C1.91572 1.82432 1.3027 2.43735 0.68967 3.05037C0.68967 2.39903 0.881241 1.44118 0.68967 0.866464C0.421471 0.0618664 0.0383295 0.751522 0.0383295 1.21129C-0.0382988 2.93543 0.0383295 4.65957 0.0383295 6.42202C0.0383295 7.30325 0.0383295 8.18447 0.0383295 9.02738C0.0383295 9.29558 -0.076613 10.0619 0.191586 10.2151C0.881241 10.6366 0.68967 8.75919 0.68967 8.5293C0.68967 7.91627 0.459785 6.76685 0.68967 6.19214C0.919556 5.65574 1.87741 5.0044 2.26055 4.62125C2.60538 4.27643 3.02684 3.9316 3.33335 3.54846C3.40998 3.47183 3.52492 3.3952 3.56323 3.31857C3.71649 3.05037 3.52492 2.43735 3.10346 2.82049Z" fill="#F6C866"/>
<path d="M11.1878 5.1193C11.571 4.35302 11.9541 3.62505 12.3372 2.85877C12.6054 2.36068 12.8353 1.8626 13.1035 1.36451C13.1802 1.21126 13.4867 0.828115 13.4483 0.59823C13.2185 -0.551195 12.1457 1.78597 12.069 1.93923C11.6476 2.74382 11.2261 3.58674 10.8047 4.39133C10.1916 3.20359 9.69356 1.67103 8.88896 0.636544C8.42919 0.0618315 8.12268 0.521602 8.35256 1.058C8.69739 1.82428 9.11885 2.55225 9.50199 3.28022C9.73188 3.73999 10.3832 4.5829 10.4215 5.08099C10.4598 5.42582 9.96176 6.00053 9.8085 6.30704C9.38705 7.11164 8.96559 7.91624 8.58245 8.72084C8.46751 8.95072 7.85448 10.4067 8.73571 9.79363C9.19548 9.48712 9.50199 8.33769 9.77019 7.83961C10.115 7.14995 10.4598 6.49861 10.8047 5.80896C11.2261 6.61356 11.6093 7.37984 12.0307 8.18444C12.2606 8.60589 12.4522 9.10398 12.7204 9.48712C12.912 9.75532 13.3334 10.1768 13.4483 9.56375C13.4867 9.33386 13.1802 8.98903 13.1035 8.79746C12.8736 8.33769 12.6054 7.83961 12.3756 7.37984C11.9924 6.69018 11.571 5.88559 11.1878 5.1193Z" fill="#F6C866"/>
<path d="M19.8851 9.87028C19.4253 9.87028 18.6973 8.8358 18.4291 8.5676C18.0077 8.14614 17.2031 7.60974 16.9732 7.11166C16.7433 6.61358 17.0498 6.46032 17.4713 6.65189C17.7012 6.76683 17.9311 7.11166 18.0843 7.26492C18.5824 7.763 19.0422 8.22277 19.5403 8.72086C19.5403 7.41817 19.5403 6.11549 19.5403 4.85112C19.5403 3.9699 19.5403 3.05036 19.5403 2.16913C19.5403 1.74768 19.4253 1.05802 19.5403 0.636565C19.8085 -0.129719 20.2682 0.521622 20.613 0.828136C21.1878 1.40285 21.8774 1.97756 22.3755 2.59059C22.5671 2.82047 22.9885 3.31856 22.3372 3.35687C22.1073 3.35687 21.8774 3.05036 21.7625 2.8971C21.2261 2.3607 20.728 1.86262 20.1916 1.32622C20.1916 2.78216 20.1916 4.2381 20.1916 5.69404C20.1916 6.23043 20.5364 9.87028 19.8851 9.87028Z" fill="#F6C866"/>
<path d="M31.3793 0.25339C30.8429 0.0235054 29.3103 2.01584 28.9272 2.39898C28.3908 1.86259 27.8544 1.32619 27.318 0.789789C26.9731 0.444961 26.4367 -0.129751 26.2452 0.674846C26.1302 1.24956 26.2452 1.93921 26.2452 2.51393C26.2452 3.5101 26.2452 4.50626 26.2452 5.50243C26.2452 6.42197 26.2452 7.34151 26.2452 8.29937C26.2452 8.6442 26.1302 9.21891 26.2452 9.52542C26.3984 9.98519 26.7816 9.90856 26.8965 9.48711C26.9348 9.33385 26.8965 9.10397 26.8965 8.98902C26.8965 8.1078 26.8965 7.26488 26.8965 6.38366C26.8965 4.69783 26.8965 3.01201 26.8965 1.3645C27.203 1.67102 27.5095 1.97753 27.8544 2.32236C28.0459 2.51393 28.544 3.2419 28.8889 3.2419C29.2337 3.2419 29.6551 2.59056 29.885 2.39898C30.2682 2.05416 30.5747 1.70933 30.9195 1.40282C30.9195 4.00818 30.8429 6.57523 30.9195 9.18059C30.9195 9.56374 31.1877 10.3683 31.5708 9.67868C31.6858 9.44879 31.6092 8.98902 31.6092 8.75914C31.6092 7.18826 31.6092 5.57906 31.6092 4.00818C31.6092 3.20358 31.6092 2.36067 31.6092 1.55607C31.6092 1.21124 31.7241 0.406647 31.3793 0.25339C31.4942 0.330019 31.2643 0.215076 31.3793 0.25339Z" fill="#F6C866"/>
</g>
<defs>
<clipPath id="clip0">
<rect width="31.6475" height="10" fill="white" transform="translate(0 0.253418)"/>
</clipPath>
</defs>
</svg>

<svg width="32" height="11" fill="none" xmlns="http://www.w3.org/2000/svg"><g clip-path="url(#clip0)" fill="#F6C866"><path d="M3.103 2.82L.69 5.234c0-.804-.115-1.11.46-1.686.727-.728 1.532-1.417 2.222-2.183.23-.269.613-.882-.115-.767-.268.077-.537.46-.69.613A84.308 84.308 0 00.69 3.051c0-.652.191-1.61 0-2.185C.42.062.038.752.038 1.211c-.076 1.724 0 3.449 0 5.211v2.605c0 .269-.115 1.035.154 1.188.69.422.498-1.456.498-1.686 0-.613-.23-1.762 0-2.337.23-.536 1.187-1.188 1.57-1.57.345-.346.767-.69 1.073-1.074.077-.076.192-.153.23-.23.153-.268-.038-.88-.46-.498zm8.085 2.3c.383-.767.766-1.495 1.15-2.261.267-.498.497-.996.766-1.494.076-.154.383-.537.344-.767-.23-1.15-1.302 1.188-1.379 1.341-.421.805-.843 1.648-1.264 2.452-.613-1.187-1.111-2.72-1.916-3.754-.46-.575-.766-.115-.536.421.344.766.766 1.494 1.149 2.222.23.46.881 1.303.92 1.801.038.345-.46.92-.614 1.226-.42.805-.842 1.61-1.226 2.414-.114.23-.728 1.686.154 1.073.46-.307.766-1.456 1.034-1.954.345-.69.69-1.341 1.035-2.031.421.805.804 1.57 1.226 2.375.23.422.421.92.69 1.303.191.268.612.69.727.077.039-.23-.268-.575-.345-.767-.23-.46-.498-.957-.727-1.417a60.964 60.964 0 01-1.188-2.26zm8.697 4.75c-.46 0-1.188-1.034-1.456-1.302-.421-.422-1.226-.958-1.456-1.456-.23-.498.077-.652.498-.46.23.115.46.46.613.613L19.54 8.72V2.17c0-.421-.115-1.111 0-1.532.268-.767.728-.115 1.073.191.575.575 1.264 1.15 1.762 1.763.192.23.613.728-.038.766-.23 0-.46-.307-.575-.46l-1.57-1.57v4.367c0 .536.344 4.176-.307 4.176zM31.38.253c-.537-.23-2.07 1.763-2.453 2.146L27.318.789c-.345-.344-.881-.919-1.073-.114-.115.575 0 1.264 0 1.839v5.785c0 .345-.115.92 0 1.226.153.46.537.384.651-.038.039-.153 0-.383 0-.498V1.364l.958.958c.192.192.69.92 1.035.92s.766-.651.996-.843c.383-.345.69-.69 1.034-.996 0 2.605-.076 5.172 0 7.778 0 .383.269 1.187.652.498.115-.23.038-.69.038-.92V1.555c0-.345.115-1.15-.23-1.303.115.077-.115-.038 0 0z"/></g><defs><clipPath id="clip0"><path fill="#fff" transform="translate(0 .253)" d="M0 0h31.648v10H0z"/></clipPath></defs></svg>
